X:6
T:Souter Creek
D:LAU: Live (2008)
C:Aidan O'Rourke
Z:Gwenaël Lambrouin, 2016-09, d'après la mélodie guitare de Kris Drever
R:reel
M:2/2
K:D
|: FAGE DA,DE | F/F/FED B,EED | FAGE EDde | fedA FBBA | 
   FAGE DA,DE | F/F/FED B,Dde | fedA  G/G/GFA | FGFD A,DDE :| 
|: A,DFA GGFD | B,DGA GFDB, | A,DFD B,DGA | EAAG =F^FDB, | 
   A,DFA GGFD | B,DGA GFde | fedA GGFA |1 FGFD A,DED :|2 FGFD A,DDE | 

